X: 46
T: Polska efter Pl Nilsson
O: Jmtland
Z:Transcribed to abcby Jon Magnusson 080501
R: Polska
M: 3/4
L: 1/8
K: A
e>c (3 AcA E|(3ABc d>f f>e|c>d (3 BdB (3 AcA|G>B B>A Ac|
e>c (3 AcA E|(3ABc d>f f>e|c>d (3 BdB (3 AcA|GB A4:|
|:A>c c>d d>e|(3 gag (3 fed d>e|c>e d>f f>e|c>A G>B B>A|
A>c c>d d>e|(3 gag (3 fed d>e|c>e d>f f>e|f=gf e4:|
